icons/square/48/kshisen.svg

<svg width="48" height="48" version="1.1" viewBox="0 0 48 48" xmlns="http://www.w3.org/2000/svg">
 <defs>
  <linearGradient id="linearGradient4501" x1="-47" x2="-1" y1="2.8779e-15" y2="6.1232e-17" gradientUnits="userSpaceOnUse">
   <stop style="stop-color:#9c7a40" offset="0"/>
   <stop style="stop-color:#ab8746" offset="1"/>
  </linearGradient>
 </defs>
 <g transform="translate(0 3.949e-5)">
  <path d="m1 43v0.25c0 2.216 1.784 4 4 4h38c2.216 0 4-1.784 4-4v-0.25c0 2.216-1.784 4-4 4h-38c-2.216 0-4-1.784-4-4zm0 0.5v0.5c0 2.216 1.784 4 4 4h38c2.216 0 4-1.784 4-4v-0.5c0 2.216-1.784 4-4 4h-38c-2.216 0-4-1.784-4-4z" style="opacity:.02"/>
  <path d="m1 43.25v0.25c0 2.216 1.784 4 4 4h38c2.216 0 4-1.784 4-4v-0.25c0 2.216-1.784 4-4 4h-38c-2.216 0-4-1.784-4-4z" style="opacity:.05"/>
  <path d="m1 43v0.25c0 2.216 1.784 4 4 4h38c2.216 0 4-1.784 4-4v-0.25c0 2.216-1.784 4-4 4h-38c-2.216 0-4-1.784-4-4z" style="opacity:.1"/>
 </g>
 <rect transform="rotate(-90)" x="-47" y="1" width="46" height="46" rx="4" style="fill:url(#linearGradient4501)"/>
 <g transform="translate(0 3.949e-5)">
  <g transform="translate(0 -1004.4)">
   <path d="m1 1043.4v4c0 2.216 1.784 4 4 4h38c2.216 0 4-1.784 4-4v-4c0 2.216-1.784 4-4 4h-38c-2.216 0-4-1.784-4-4z" style="opacity:.1"/>
  </g>
 </g>
 <g transform="translate(-1,-1)" style="fill-opacity:.102">
  <rect x="11" y="15" width="13" height="20" rx="2" ry="2"/>
  <rect x="26" y="15" width="13" height="20" rx="2" ry="2"/>
 </g>
 <g transform="translate(0,-1)">
  <rect x="10" y="14" width="13" height="20" rx="2" ry="2" style="fill:#f4eee4"/>
  <rect x="25" y="14" width="13" height="20" rx="2" ry="2" style="fill:#f4eee4"/>
  <path d="m28.5 16a2.5 2.5 0 0 0-2.5 2.5 2.5 2.5 0 0 0 2.5 2.5 2.5 2.5 0 0 0 2.5-2.5 2.5 2.5 0 0 0-2.5-2.5m0 1a1.5 1.5 0 0 1 1.5 1.5 1.5 1.5 0 0 1-1.5 1.5 1.5 1.5 0 0 1-1.5-1.5 1.5 1.5 0 0 1 1.5-1.5" style="fill:#3d8b58"/>
  <circle cx="28.5" cy="18.5" r=".5" style="fill:#3d8b58"/>
  <path d="m34.5 16a2.5 2.5 0 0 0-2.5 2.5 2.5 2.5 0 0 0 2.5 2.5 2.5 2.5 0 0 0 2.5-2.5 2.5 2.5 0 0 0-2.5-2.5m0 1a1.5 1.5 0 0 1 1.5 1.5 1.5 1.5 0 0 1-1.5 1.5 1.5 1.5 0 0 1-1.5-1.5 1.5 1.5 0 0 1 1.5-1.5" style="fill:#606060"/>
  <circle cx="34.5" cy="18.5" r=".5" style="fill:#606060"/>
  <path d="m28.5 27a2.5 2.5 0 0 0-2.5 2.5 2.5 2.5 0 0 0 2.5 2.5 2.5 2.5 0 0 0 2.5-2.5 2.5 2.5 0 0 0-2.5-2.5m0 1a1.5 1.5 0 0 1 1.5 1.5 1.5 1.5 0 0 1-1.5 1.5 1.5 1.5 0 0 1-1.5-1.5 1.5 1.5 0 0 1 1.5-1.5" style="fill:#606060"/>
  <circle cx="28.5" cy="29.5" r=".5" style="fill:#606060"/>
  <path d="m34.5 27a2.5 2.5 0 0 0-2.5 2.5 2.5 2.5 0 0 0 2.5 2.5 2.5 2.5 0 0 0 2.5-2.5 2.5 2.5 0 0 0-2.5-2.5m0 1a1.5 1.5 0 0 1 1.5 1.5 1.5 1.5 0 0 1-1.5 1.5 1.5 1.5 0 0 1-1.5-1.5 1.5 1.5 0 0 1 1.5-1.5" style="fill:#3d8b58"/>
  <circle cx="34.5" cy="29.5" r=".5" style="fill:#3d8b58"/>
  <path d="m16.5 16a3.5 3.5 0 0 0-3.5 3.5 3.5 3.5 0 0 0 3.5 3.5 3.5 3.5 0 0 0 3.5-3.5 3.5 3.5 0 0 0-3.5-3.5m0 1a2.5 2.5 0 0 1 2.5 2.5 2.5 2.5 0 0 1-2.5 2.5 2.5 2.5 0 0 1-2.5-2.5 2.5 2.5 0 0 1 2.5-2.5" style="fill:#606060"/>
  <path d="m16.5 18a1.5 1.5 0 0 0-1.5 1.5 1.5 1.5 0 0 0 1.5 1.5 1.5 1.5 0 0 0 1.5-1.5 1.5 1.5 0 0 0-1.5-1.5m0 1a0.5 0.5 0 0 1 0.5 0.5 0.5 0.5 0 0 1-0.5 0.5 0.5 0.5 0 0 1-0.5-0.5 0.5 0.5 0 0 1 0.5-0.5" style="fill:#606060"/>
  <g transform="translate(0,9)">
   <path d="m16.5 16a3.5 3.5 0 0 0-3.5 3.5 3.5 3.5 0 0 0 3.5 3.5 3.5 3.5 0 0 0 3.5-3.5 3.5 3.5 0 0 0-3.5-3.5m0 1a2.5 2.5 0 0 1 2.5 2.5 2.5 2.5 0 0 1-2.5 2.5 2.5 2.5 0 0 1-2.5-2.5 2.5 2.5 0 0 1 2.5-2.5" style="fill:#3d8b58"/>
   <path d="m16.5 18a1.5 1.5 0 0 0-1.5 1.5 1.5 1.5 0 0 0 1.5 1.5 1.5 1.5 0 0 0 1.5-1.5 1.5 1.5 0 0 0-1.5-1.5m0 1a0.5 0.5 0 0 1 0.5 0.5 0.5 0.5 0 0 1-0.5 0.5 0.5 0.5 0 0 1-0.5-0.5 0.5 0.5 0 0 1 0.5-0.5" style="fill:#3d8b58"/>
  </g>
 </g>
</svg>

<svg width="48" height="48" version="1.1" viewBox="0 0 48 48.000001" xmlns="http://www.w3.org/2000/svg">
 <defs>
  <linearGradient id="linearGradient4501" x1="-47" x2="-1" y1="2.8779e-15" y2="6.1232e-17" gradientUnits="userSpaceOnUse">
   <stop style="stop-color:#9c7a40" offset="0"/>
   <stop style="stop-color:#ab8746" offset="1"/>
  </linearGradient>
 </defs>
 <g transform="translate(0 3.949e-5)">
  <path d="m1 43v0.25c0 2.216 1.784 4 4 4h38c2.216 0 4-1.784 4-4v-0.25c0 2.216-1.784 4-4 4h-38c-2.216 0-4-1.784-4-4zm0 0.5v0.5c0 2.216 1.784 4 4 4h38c2.216 0 4-1.784 4-4v-0.5c0 2.216-1.784 4-4 4h-38c-2.216 0-4-1.784-4-4z" style="opacity:.02"/>
  <path d="m1 43.25v0.25c0 2.216 1.784 4 4 4h38c2.216 0 4-1.784 4-4v-0.25c0 2.216-1.784 4-4 4h-38c-2.216 0-4-1.784-4-4z" style="opacity:.05"/>
  <path d="m1 43v0.25c0 2.216 1.784 4 4 4h38c2.216 0 4-1.784 4-4v-0.25c0 2.216-1.784 4-4 4h-38c-2.216 0-4-1.784-4-4z" style="opacity:.1"/>
 </g>
 <rect transform="rotate(-90)" x="-47" y="1" width="46" height="46" rx="4" style="fill:url(#linearGradient4501)"/>
 <g transform="translate(0 3.949e-5)">
  <g transform="translate(0 -1004.4)">
   <path d="m1 1043.4v4c0 2.216 1.784 4 4 4h38c2.216 0 4-1.784 4-4v-4c0 2.216-1.784 4-4 4h-38c-2.216 0-4-1.784-4-4z" style="opacity:.1"/>
  </g>
 </g>
 <g transform="translate(-1,-1)" style="fill-opacity:.102">
  <rect x="11" y="15" width="13" height="20" rx="2" ry="2"/>
  <rect x="26" y="15" width="13" height="20" rx="2" ry="2"/>
 </g>
 <g transform="translate(0,-1)">
  <rect x="10" y="14" width="13" height="20" rx="2" ry="2" style="fill:#f4eee4"/>
  <rect x="25" y="14" width="13" height="20" rx="2" ry="2" style="fill:#f4eee4"/>
  <path d="M 28.5,16 A 2.5,2.5 0 0 0 26,18.5 2.5,2.5 0 0 0 28.5,21 2.5,2.5 0 0 0 31,18.5 2.5,2.5 0 0 0 28.5,16 m 0,1 A 1.5,1.5 0 0 1 30,18.5 1.5,1.5 0 0 1 28.5,20 1.5,1.5 0 0 1 27,18.5 1.5,1.5 0 0 1 28.5,17" style="fill:#3d8b58"/>
  <circle cx="28.5" cy="18.5" r=".5" style="fill:#3d8b58"/>
  <path d="M 34.5,16 A 2.5,2.5 0 0 0 32,18.5 2.5,2.5 0 0 0 34.5,21 2.5,2.5 0 0 0 37,18.5 2.5,2.5 0 0 0 34.5,16 m 0,1 A 1.5,1.5 0 0 1 36,18.5 1.5,1.5 0 0 1 34.5,20 1.5,1.5 0 0 1 33,18.5 1.5,1.5 0 0 1 34.5,17" style="fill:#606060"/>
  <circle cx="34.5" cy="18.5" r=".5" style="fill:#606060"/>
  <path d="M 28.5,27 A 2.5,2.5 0 0 0 26,29.5 2.5,2.5 0 0 0 28.5,32 2.5,2.5 0 0 0 31,29.5 2.5,2.5 0 0 0 28.5,27 m 0,1 A 1.5,1.5 0 0 1 30,29.5 1.5,1.5 0 0 1 28.5,31 1.5,1.5 0 0 1 27,29.5 1.5,1.5 0 0 1 28.5,28" style="fill:#606060"/>
  <circle cx="28.5" cy="29.5" r=".5" style="fill:#606060"/>
  <path d="M 34.5,27 A 2.5,2.5 0 0 0 32,29.5 2.5,2.5 0 0 0 34.5,32 2.5,2.5 0 0 0 37,29.5 2.5,2.5 0 0 0 34.5,27 m 0,1 A 1.5,1.5 0 0 1 36,29.5 1.5,1.5 0 0 1 34.5,31 1.5,1.5 0 0 1 33,29.5 1.5,1.5 0 0 1 34.5,28" style="fill:#3d8b58"/>
  <circle cx="34.5" cy="29.5" r=".5" style="fill:#3d8b58"/>
  <path d="M 16.5,16 A 3.5,3.5 0 0 0 13,19.5 3.5,3.5 0 0 0 16.5,23 3.5,3.5 0 0 0 20,19.5 3.5,3.5 0 0 0 16.5,16 m 0,1 A 2.5,2.5 0 0 1 19,19.5 2.5,2.5 0 0 1 16.5,22 2.5,2.5 0 0 1 14,19.5 2.5,2.5 0 0 1 16.5,17" style="fill:#606060"/>
  <path d="M 16.5,18 A 1.5,1.5 0 0 0 15,19.5 1.5,1.5 0 0 0 16.5,21 1.5,1.5 0 0 0 18,19.5 1.5,1.5 0 0 0 16.5,18 m 0,1 A 0.5,0.5 0 0 1 17,19.5 0.5,0.5 0 0 1 16.5,20 0.5,0.5 0 0 1 16,19.5 0.5,0.5 0 0 1 16.5,19" style="fill:#606060"/>
  <g transform="translate(0,9)">
   <path d="M 16.5,16 A 3.5,3.5 0 0 0 13,19.5 3.5,3.5 0 0 0 16.5,23 3.5,3.5 0 0 0 20,19.5 3.5,3.5 0 0 0 16.5,16 m 0,1 A 2.5,2.5 0 0 1 19,19.5 2.5,2.5 0 0 1 16.5,22 2.5,2.5 0 0 1 14,19.5 2.5,2.5 0 0 1 16.5,17" style="fill:#3d8b58"/>
   <path d="M 16.5,18 A 1.5,1.5 0 0 0 15,19.5 1.5,1.5 0 0 0 16.5,21 1.5,1.5 0 0 0 18,19.5 1.5,1.5 0 0 0 16.5,18 m 0,1 A 0.5,0.5 0 0 1 17,19.5 0.5,0.5 0 0 1 16.5,20 0.5,0.5 0 0 1 16,19.5 0.5,0.5 0 0 1 16.5,19" style="fill:#3d8b58"/>
  </g>
 </g>
</svg>
